Numix-GalliumOS/16/mimetypes/application-text-template.svg

<?xml version="1.0" encoding="UTF-8" standalone="no"?>
<svg
   xmlns:dc="http://purl.org/dc/elements/1.1/"
   xmlns:cc="http://creativecommons.org/ns#"
   xmlns:rdf="http://www.w3.org/1999/02/22-rdf-syntax-ns#"
   xmlns:svg="http://www.w3.org/2000/svg"
   xmlns="http://www.w3.org/2000/svg"
   xmlns:sodipodi="http://sodipodi.sourceforge.net/DTD/sodipodi-0.dtd"
   xmlns:inkscape="http://www.inkscape.org/namespaces/inkscape"
   width="16"
   height="16"
   viewBox="0 0 16 16"
   id="svg2989"
   version="1.1"
   inkscape:version="0.48.5 r10040"
   sodipodi:docname="application-text-template.svg">
  <metadata
     id="metadata3017">
    <rdf:RDF>
      <cc:Work
         rdf:about="">
        <dc:format>image/svg+xml</dc:format>
        <dc:type
           rdf:resource="http://purl.org/dc/dcmitype/StillImage" />
      </cc:Work>
    </rdf:RDF>
  </metadata>
  <defs
     id="defs3015" />
  <sodipodi:namedview
     pagecolor="#ffffff"
     bordercolor="#666666"
     borderopacity="1"
     objecttolerance="10"
     gridtolerance="10"
     guidetolerance="10"
     inkscape:pageopacity="0"
     inkscape:pageshadow="2"
     inkscape:window-width="1280"
     inkscape:window-height="970"
     id="namedview3013"
     showgrid="true"
     inkscape:zoom="32"
     inkscape:cx="8.4567216"
     inkscape:cy="8.0953379"
     inkscape:window-x="0"
     inkscape:window-y="0"
     inkscape:window-maximized="1"
     inkscape:current-layer="svg2989">
    <inkscape:grid
       type="xygrid"
       id="grid3036" />
  </sodipodi:namedview>
  <path
     style="fill:#dcdcdc"
     d="M 2.667969,0 C 2.324219,0 2,-0.0097655 2,0.3339845 L 2,15.332031 C 2,15.65625 2.34375,16 2.667969,16 l 10.664062,0 C 13.65625,16 14,15.65625 14,15.332031 L 14,0.667969 C 14,0.324219 13.675781,0 13.332031,0 z"
     id="path2991"
     inkscape:connector-curvature="0"
     sodipodi:nodetypes="sssssssss" />
  <path
     style="fill:#888888"
     inkscape:connector-curvature="0"
     id="path16"
     d="m 4,7 0,1 8,0 0,-1 z" />
  <path
     style="fill:#888888"
     inkscape:connector-curvature="0"
     id="path22"
     d="m 4,9 0,1 8,0 0,-1 z" />
  <path
     style="fill:#888888"
     inkscape:connector-curvature="0"
     id="path28"
     d="m 4,11 0,1 8,0 0,-1 z" />
  <path
     style="fill:#888888"
     inkscape:connector-curvature="0"
     id="path16-4"
     d="m 4.0000005,5 0,1 L 12,6 12,5 z" />
</svg>

<svg xmlns="http://www.w3.org/2000/svg" viewBox="0 0 16 16">
 <path d="m 2.668 0 c -0.344 0 -0.668 -0.01 -0.668 0.334 l 0 14.998 c 0 0.324 0.344 0.668 0.668 0.668 l 10.664 0 c 0.324 0 0.668 -0.344 0.668 -0.668 l 0 -14.664 c 0 -0.344 -0.324 -0.668 -0.668 -0.668 z" style="fill:#dcdcdc"/>
 <path d="m 4 7 0 1 8 0 0 -1 z" style="fill:#888"/>
 <path d="m 4 9 0 1 8 0 0 -1 z" style="fill:#888"/>
 <path d="m 4 11 0 1 8 0 0 -1 z" style="fill:#888"/>
 <path d="m 4 5 0 1 l 8 0 0 -1 z" style="fill:#888"/>
</svg>
